X: 9
T: LADIES TRIUMPH
S: "Community Dances Manual 5", EFDSS, Michael Bell ed., 1957 p.7
R: reel
Z: 2010 John Chambers <jc:trillian.mit.edu>
M: 2/4
L: 1/16
K: A
"A"|: E2 | "A"E2A2 ABcA | "D"B2 F4 "(E7)"G2 |\
"A"A2A2 ABcd | "E"e4 "A"c2e2 | "D"f2a2 "A"e2c2 |
"D"dcBA "E"B2e2 | "A"E2A2 "E7"cBAB | "A"c2A2 A2 "B"::\
cd | "A"e2c2 a2e2 | "D(Bm)"dcBA "E"B2cd |
"A"e2c2 a2e2 | "E7"fagb "A"a3e | "D"f2a2 "A"e2c2 |\
"D(Bm"dcBA "E"B2e2 | "A"E2A2 "E7"cBAB | "A"c2A2 A2 :|


%%sep 5 1 500

%%sep 1 1 500

